!!!OTL: DRUEBEN IM ODENWALD
!!!ARE: Europa, Mitteleuropa, Deutschland, Hessen, Lahn - Gegend; Wetterau;     Westerwald
!!!SCT: E1461
!!!YEM: Copyright 1995, estate of Helmut Schaffrath.
**kern
*ICvox
*Ivox
*M3/4
*k[b-e-]
*B-:
=1
{4f
4f
4b-
=2
4.g
8g
4g}
=3
{8f
8a
8cc
8ee-
8dd
8cc
=4
2b-
4r}
=5
{4f
4f
4b-
=6
4.g
8g
4g}
=7
{8f
8a
8cc
8ee-
8dd
8cc
=8
2b-
4r}
=9
{4b-
4dd
4ff
=10
4.ee-
8dd
4cc}
=11
{4f
4cc
4ee-
=12
4.dd
8cc
4b-}
=13
{4f
4f
4b-
=14
4.g
8g
4g}
=15
{8f
8a
8cc
8ee-
8dd
8cc
=16
2b-
4r}
=17
{4b-
4dd
4ff
=18
4.ee-
8dd
4cc}
=19
{4f
4cc
4ee-
=20
4.dd
8cc
4b-}
=21
{4f
4f
4b-
=22
4.g
8g
4g}
=23
{8f
8a
8cc
8ee-
8dd
8cc
=24
2b-
4r}
==
!!!AGN: Staende -, Jaeger - Lied
!!!ONB: ESAC (Essen Associative Code) Database: ERK3
!!!AMT: simple triple
!!!AIN: vox
!!!EED: Helmut Schaffrath
!!!EEV: 1.0
*-
!!!title: @{OTL} [@{SCT}]
